X: 21282
M: 2/4
L: 1/16
K: C
c2cc c2e2 | a2g2e2c2 |\
c2cc c2e2 | a2g2e2c2 |\
g2gg g2g2 | c4- c2 :|\
|: G2 |\
c2d2e2f2 | {e}d2^c2d2c2 |\
d2f2e2d2 | cBcd c2G2 |
c2d2e2f2 | {e}d2^c2d2c2 |\
d2f2e2d2 | c4- c2 :|\
|: G2 |\
c2d2e2f2 | {e}d2^c2d2c2 |\
d2f2e2d2 | c4 c2 :|


